X:14
T:Leo Rowsome's Reel
M:C|
R:Reel
S:phelan-2/39
L:1/8
K:D
(3ABA FA   DAFA     | (3Bcd Ad   fdec | (3BcB GB    EBGB     | (3BAB ef    gece  |
dAFA  DAFA          | (3Bcd Ad   fdec | (3dcB (3cBA (3Bcd AF | GEAG  FD    D2   :|
(3aba fd   eA (3AGA | (3Bcd Ad   fdfa | b2    gb    ebgb     | (3aba (3faf dfag  |
(3fga fd   (3Bcd Ad | fdec  defa      | (3bag af    gfed     | ceag  fd    d2   :|

